img/icon-assets/eye-slashed-icon.svg

<svg xmlns="http://www.w3.org/2000/svg" viewBox="0 0 12.8 12"><g id="Layer_2" data-name="Layer 2"><g id="Layer_1-2" data-name="Layer 1"><g id="glyphicons_halflings"><g id="eye-close"><path d="M9.5,0H8L7.7,1.2a5.28,5.28,0,0,0-1.3-.1C2.4,1.1,0,5.1,0,6s1.9,4.1,5.1,4.8L4.8,12H6.3Zm-5,5.1.4-.4c.2-.2.5-.2.6.1A7.44,7.44,0,0,0,6.4,6h0l-.2.9L6.1,7a.75.75,0,0,1-.8.1,2.73,2.73,0,0,1-.9-1.2A.75.75,0,0,1,4.5,5.1ZM1.8,6.4a.78.78,0,0,1,.1-.8A12.94,12.94,0,0,1,3.5,3.8c.2-.2.2-.2.1.1A4.25,4.25,0,0,0,3.4,5,2.92,2.92,0,0,0,5.9,7.9L5.5,9.4A6.11,6.11,0,0,1,1.8,6.4Zm11-.4c0,.8-1.7,3.7-4.6,4.7L8.7,9A6.44,6.44,0,0,0,11,6.5a.78.78,0,0,0-.1-.8c-.3-.3-.6-.8-1.1-1.3l.5-1.8A5.84,5.84,0,0,1,12.8,6Z"/></g></g></g></g></svg>

<?xml version="1.0" encoding="utf-8"?>
<!-- Generator: Adobe Illustrator 24.1.2, SVG Export Plug-In . SVG Version: 6.00 Build 0)  -->
<svg version="1.1" id="Layer_1" xmlns="http://www.w3.org/2000/svg" xmlns:xlink="http://www.w3.org/1999/xlink" x="0px" y="0px"
	 viewBox="0 0 12.8 12" style="enable-background:new 0 0 12.8 12;" xml:space="preserve">
<style type="text/css">
	.st0{fill:#FFFFFF;}
</style>
<g id="Layer_2_1_">
	<g id="Layer_1-2">
		<g id="glyphicons_halflings">
			<g id="eye-close">
				<path class="st0" d="M9.5,0H8L7.7,1.2C7.3,1.1,6.8,1.1,6.4,1.1C2.4,1.1,0,5.1,0,6s1.9,4.1,5.1,4.8L4.8,12h1.5L9.5,0z M4.5,5.1
					l0.4-0.4c0.2-0.2,0.5-0.2,0.6,0.1C5.8,5.2,6.1,5.6,6.4,6l0,0L6.2,6.9L6.1,7C5.9,7.2,5.6,7.2,5.3,7.1C4.9,6.8,4.6,6.4,4.4,5.9
					C4.3,5.6,4.3,5.3,4.5,5.1z M1.8,6.4C1.7,6.1,1.7,5.8,1.9,5.6c0.5-0.6,1-1.3,1.6-1.8c0.2-0.2,0.2-0.2,0.1,0.1
					C3.5,4.3,3.4,4.6,3.4,5c0,1.5,1.1,2.7,2.5,2.9L5.5,9.4C3.9,8.9,2.6,7.9,1.8,6.4z M12.8,6c0,0.8-1.7,3.7-4.6,4.7L8.7,9
					c1-0.6,1.8-1.5,2.3-2.5c0.1-0.3,0.1-0.6-0.1-0.8c-0.3-0.3-0.6-0.8-1.1-1.3l0.5-1.8C11.5,3.4,12.4,4.6,12.8,6z"/>
			</g>
		</g>
	</g>
</g>
</svg>
